img/image/features.svg

<svg width="70" height="76" viewBox="0 0 70 76" fill="none" xmlns="http://www.w3.org/2000/svg">
<g opacity="0.8">
<path d="M14.7584 45.4788H7.19099M7.19099 45.4788V8.36295C7.19099 5.40056 9.61254 3 12.5989 3H36.5289C39.5153 3 41.9369 5.40056 41.9369 8.36295V45.4788H34.3696M7.19099 45.4788V66.8287H41.937V45.4788M44.5593 66.8295H4.56867C3.5715 66.8295 2.76318 67.6313 2.76318 68.6204V71.209C2.76318 72.1982 3.5715 73 4.56867 73H44.5593C45.5565 73 46.3647 72.1982 46.3647 71.209V68.6204C46.3647 67.6313 45.5563 66.8295 44.5593 66.8295Z" stroke="#E5EEF7" stroke-width="2" stroke-miterlimit="10" stroke-linecap="round" stroke-linejoin="round"/>
<path d="M13.749 20.7831V28.6591C13.749 29.9123 14.7732 30.9283 16.0365 30.9283H33.0918C34.3552 30.9283 35.3793 29.9123 35.3793 28.6591V11.7408C35.3793 10.4876 34.3552 9.47168 33.0918 9.47168H16.0365C14.7732 9.47168 13.749 10.4876 13.749 11.7408V15.7863M24.7079 50.2437L26.5633 45.4791H22.565L24.4205 40.7144" stroke="#E5EEF7" stroke-width="2" stroke-miterlimit="10" stroke-linecap="round" stroke-linejoin="round"/>
<path d="M24.5639 55.2057C29.9794 55.2057 34.3696 50.8508 34.3696 45.4788C34.3696 40.1068 29.9794 35.752 24.5639 35.752C19.1484 35.752 14.7583 40.1068 14.7583 45.4788C14.7583 50.8508 19.1484 55.2057 24.5639 55.2057Z" stroke="#E5EEF7" stroke-width="2" stroke-miterlimit="10" stroke-linecap="round" stroke-linejoin="round"/>
<path d="M45.8791 36.9758H41.937V45.4789H45.8791C46.098 45.4789 46.308 45.3926 46.4628 45.2391C46.6176 45.0855 46.7046 44.8772 46.7046 44.66V37.7947C46.7046 37.5775 46.6176 37.3692 46.4628 37.2157C46.308 37.0621 46.098 36.9758 45.8791 36.9758Z" stroke="#E5EEF7" stroke-width="2" stroke-miterlimit="10" stroke-linecap="round" stroke-linejoin="round"/>
<path d="M52.8765 58.7549C54.3803 60.4441 56.5798 61.5094 59.0301 61.5094C63.5626 61.5094 67.2369 57.8646 67.2369 53.3686V28.1982M67.2369 28.1982H62.796V53.3686C62.796 55.4317 61.1099 57.1042 59.0301 57.1042C56.9504 57.1042 55.2643 55.4317 55.2643 53.3686V47.5152C55.2643 42.8258 51.432 39.0242 46.7046 39.0242V43.4295H47.0575C49.1373 43.4295 50.8234 45.102 50.8234 47.1651V53.3684C50.8234 53.6234 50.8352 53.8755 50.8583 54.1244M67.2369 28.1982L67.237 15.2526M67.2369 28.1982H62.7962C60.4872 28.1982 58.6153 26.3415 58.6153 24.0509V22.7388M58.6153 17.8215V17.2715C58.6153 16.1566 59.5264 15.2526 60.6505 15.2526H67.237M67.237 15.2526L67.2369 12.2928C67.2369 11.6155 67.0796 10.9474 66.7772 10.3401C66.4748 9.73295 66.0354 9.20303 65.4932 8.7915L63.7881 7.49756M67.2369 23.5584H63.778M17.791 18.3502H23.6544M17.791 14.4904H23.6544M26.5633 26.4533H18.9441C18.6383 26.4533 18.345 26.3328 18.1287 26.1183C17.9125 25.9038 17.791 25.6128 17.791 25.3095V23.4332C17.791 23.1298 17.9125 22.8389 18.1287 22.6244C18.345 22.4099 18.6383 22.2894 18.9441 22.2894H26.5633C26.8691 22.2894 27.1624 22.4099 27.3786 22.6244C27.5949 22.8389 27.7163 23.1298 27.7163 23.4332V25.3095C27.7164 25.4597 27.6865 25.6084 27.6286 25.7472C27.5707 25.886 27.4857 26.0121 27.3787 26.1183C27.2716 26.2245 27.1445 26.3088 27.0046 26.3663C26.8647 26.4237 26.7147 26.4533 26.5633 26.4533Z" stroke="#E5EEF7" stroke-width="2" stroke-miterlimit="10" stroke-linecap="round" stroke-linejoin="round"/>
</g>
</svg>

<svg width="70" height="76" fill="none" xmlns="http://www.w3.org/2000/svg"><g opacity=".8" stroke="#E5EEF7" stroke-width="2" stroke-miterlimit="10" stroke-linecap="round" stroke-linejoin="round"><path d="M14.758 45.479H7.191m0 0V8.363C7.191 5.4 9.613 3 12.599 3h23.93c2.986 0 5.408 2.4 5.408 5.363v37.116H34.37m-27.179 0v21.35h34.746v-21.35m2.622 21.35H4.57c-.998 0-1.806.802-1.806 1.791v2.589c0 .99.808 1.791 1.806 1.791h39.99c.998 0 1.806-.802 1.806-1.791V68.62c0-.989-.809-1.79-1.806-1.79Z"/><path d="M13.749 20.783v7.876a2.278 2.278 0 0 0 2.287 2.27h17.056a2.278 2.278 0 0 0 2.287-2.27V11.741a2.278 2.278 0 0 0-2.287-2.27H16.037a2.278 2.278 0 0 0-2.288 2.27v4.045m10.959 34.458 1.855-4.765h-3.998l1.855-4.765"/><path d="M24.564 55.206c5.415 0 9.806-4.355 9.806-9.727s-4.39-9.727-9.806-9.727c-5.416 0-9.806 4.355-9.806 9.727s4.39 9.727 9.806 9.727ZM45.88 36.976h-3.943v8.503h3.942a.83.83 0 0 0 .584-.24.816.816 0 0 0 .242-.579v-6.865a.815.815 0 0 0-.242-.58.829.829 0 0 0-.584-.24Z"/><path d="M52.877 58.755a8.216 8.216 0 0 0 6.153 2.754c4.533 0 8.207-3.644 8.207-8.14v-25.17m0 0h-4.441v25.17c0 2.063-1.686 3.735-3.766 3.735s-3.766-1.672-3.766-3.735v-5.854c0-4.69-3.832-8.49-8.56-8.49v4.404h.353c2.08 0 3.766 1.673 3.766 3.736v6.203c0 .255.012.508.035.756m16.379-25.926V15.253m0 12.945h-4.44c-2.31 0-4.182-1.857-4.182-4.147v-1.312m0-4.918v-.55c0-1.114.911-2.018 2.035-2.018h6.587m0 0v-2.96a4.38 4.38 0 0 0-.46-1.953 4.417 4.417 0 0 0-1.284-1.549l-1.705-1.293m3.449 16.06h-3.459M17.791 18.35h5.863m-5.863-3.86h5.863m2.91 11.963h-7.62c-.306 0-.599-.12-.815-.335a1.14 1.14 0 0 1-.338-.808v-1.877c0-.303.122-.594.338-.809.216-.214.51-.335.815-.335h7.62c.305 0 .598.12.815.335.216.215.337.506.337.81v1.875a1.135 1.135 0 0 1-.337.81 1.155 1.155 0 0 1-.816.334Z"/></g></svg>
